TuxGuitar/src-skins/Breeze/TuxGuitar/transport_metronome.svg

<?xml version="1.0" encoding="UTF-8" standalone="no"?>
<svg
   viewBox="0 0 22 22"
   version="1.1"
   id="svg135"
   sodipodi:docname="transport_metronome.svg"
   inkscape:version="1.2.2 (b0a8486541, 2022-12-01)"
   xmlns:inkscape="http://www.inkscape.org/namespaces/inkscape"
   xmlns:sodipodi="http://sodipodi.sourceforge.net/DTD/sodipodi-0.dtd"
   xmlns="http://www.w3.org/2000/svg"
   xmlns:svg="http://www.w3.org/2000/svg">
  <sodipodi:namedview
     id="namedview137"
     pagecolor="#ffffff"
     bordercolor="#000000"
     borderopacity="0.25"
     inkscape:showpageshadow="2"
     inkscape:pageopacity="0.0"
     inkscape:pagecheckerboard="0"
     inkscape:deskcolor="#d1d1d1"
     showgrid="true"
     inkscape:zoom="32"
     inkscape:cx="12.21875"
     inkscape:cy="12.34375"
     inkscape:window-width="999"
     inkscape:window-height="1021"
     inkscape:window-x="921"
     inkscape:window-y="0"
     inkscape:window-maximized="0"
     inkscape:current-layer="svg135">
    <inkscape:grid
       type="xygrid"
       id="grid1278" />
  </sodipodi:namedview>
  <defs
     id="defs3051">
    <style
       type="text/css"
       id="current-color-scheme">
      .ColorScheme-Text {
        color:#232629;
      }
      </style>
  </defs>
  <path
     style="fill:currentColor;fill-opacity:1;stroke:none"
     d="M 5.4159974,4.7226086 4.5840025,5.2773914 10.609191,14.269635 11.441187,13.714853 Z"
     class="ColorScheme-Text"
     id="path133"
     sodipodi:nodetypes="ccccc" />
  <path
     style="color:#232629;fill:currentColor;fill-opacity:1;stroke:none;stroke-width:0.950382"
     d="M 4.9032258,18 4,18.999971 18,19 17.096774,18.000029 Z"
     class="ColorScheme-Text"
     id="path133-7"
     sodipodi:nodetypes="ccccc" />
  <path
     style="color:#232629;fill:currentColor;fill-opacity:1;stroke:none;stroke-width:0.612372"
     d="m 8,3 v 1 h 6 V 3 Z"
     class="ColorScheme-Text"
     id="path133-7-3"
     sodipodi:nodetypes="ccccc" />
  <path
     style="color:#232629;fill:currentColor;fill-opacity:1;stroke:none;stroke-width:1.00864"
     d="M 4,19 5.0458201,18.874094 8.9827535,3.1858163 8,3 Z"
     class="ColorScheme-Text"
     id="path133-9"
     sodipodi:nodetypes="ccccc" />
  <path
     style="color:#232629;fill:currentColor;fill-opacity:1;stroke:none;stroke-width:1.00864"
     d="M 18,19 16.95418,18.874094 13.017246,3.1858163 14,3 Z"
     class="ColorScheme-Text"
     id="path133-9-1"
     sodipodi:nodetypes="ccccc" />
  <circle
     style="fill:#232629;stroke-width:0.75"
     id="path2004"
     cx="11"
     cy="14"
     r="1.5" />
  <circle
     style="fill:#232629;stroke-width:0.75"
     id="path2004-0"
     cx="5"
     cy="5"
     r="1.5" />
</svg>

<?xml version="1.0" encoding="UTF-8"?>
<svg id="svg135" version="1.1" viewBox="0 0 22 22" xmlns="http://www.w3.org/2000/svg">
 <defs id="defs3051">
  <style id="current-color-scheme" type="text/css">.ColorScheme-Text {
        color:#232629;
      }</style>
 </defs>
 <path id="path133" class="ColorScheme-Text" d="m5.416 4.7226-0.83199 0.55478 6.0252 8.9922 0.832-0.55478z" fill="currentColor"/>
 <path id="path133-7" class="ColorScheme-Text" d="m4.9032 18-0.90323 0.99997 14 2.9e-5 -0.90323-0.99997z" color="#232629" fill="currentColor"/>
 <path id="path133-7-3" class="ColorScheme-Text" d="m8 3v1h6v-1z" color="#232629" fill="currentColor"/>
 <path id="path133-9" class="ColorScheme-Text" d="m4 19 1.0458-0.12591 3.9369-15.688-0.98275-0.18582z" color="#232629" fill="currentColor"/>
 <path id="path133-9-1" class="ColorScheme-Text" d="m18 19-1.0458-0.12591-3.9369-15.688 0.98275-0.18582z" color="#232629" fill="currentColor"/>
 <circle id="path2004" cx="11" cy="14" r="1.5" fill="#232629" stroke-width=".75"/>
 <circle id="path2004-0" cx="5" cy="5" r="1.5" fill="#232629" stroke-width=".75"/>
</svg>
